X:10201
%7971
T:Jig of Slurs
R:Jig
S:Boys of the Lough; Johnny Cunningham
M:6/8
L:1/8
K:Cmaj
|:Gcc cBc|Acc Gcc|Acc Gcc|Add dcA|
Gcc cBc|Acc Gcc|Acc Bcd|e
